img/lines.svg

<svg version="1.1" id="Layer_1" xmlns="http://www.w3.org/2000/svg" xmlns:xlink="http://www.w3.org/1999/xlink" x="0px" y="0px"
	 width="100%" viewBox="0 0 1844 980" enable-background="new 0 0 1844 980" xml:space="preserve">
<path fill="#DFB0B0" opacity="1.000000" stroke="none" 
	d="
M1271.468262,981.000000 
	C1270.169922,980.333862 1269.401123,979.187866 1268.500610,979.072937 
	C1252.572876,977.039612 1238.723145,970.592102 1226.565430,960.133972 
	C1215.133179,950.299805 1207.660889,938.203979 1203.949341,923.589478 
	C1199.977295,907.948059 1201.877075,892.712524 1207.129028,877.870605 
	C1214.169678,857.974487 1223.908936,839.550720 1238.501709,823.950806 
	C1248.640137,813.112549 1258.831787,802.292969 1268.388428,790.950134 
	C1278.361206,779.113525 1287.649170,766.696960 1297.150879,754.467346 
	C1313.607910,733.285522 1331.428467,713.261047 1351.385864,695.406372 
	C1370.028809,678.727783 1389.846802,663.364502 1409.104980,647.371033 
	C1421.451660,637.117554 1433.701538,626.747864 1446.030273,616.472778 
	C1459.733643,605.052124 1473.567017,593.785706 1487.175171,582.253113 
	C1497.955566,573.116943 1508.443481,563.636597 1519.129395,554.387573 
	C1533.398438,542.037170 1547.750854,529.783142 1562.032715,517.447510 
	C1569.991455,510.573578 1577.711304,503.413239 1585.835938,496.743805 
	C1601.238892,484.099548 1616.505737,471.244049 1632.498535,459.378632 
	C1644.439331,450.519562 1657.170654,442.631134 1670.022949,435.119781 
	C1686.100342,425.723541 1704.116455,421.351532 1722.049683,417.013458 
	C1732.109863,414.579895 1742.289551,412.595917 1752.255737,409.833344 
	C1759.784058,407.746582 1766.638428,410.049683 1773.052979,412.745117 
	C1792.135010,420.763580 1807.194336,434.190887 1820.445435,449.863831 
	C1830.155151,461.348450 1836.998291,474.268890 1840.339600,488.891022 
	C1841.750122,495.063629 1842.799561,501.461456 1842.868164,507.769348 
	C1843.027222,522.406067 1843.980591,537.097473 1840.079346,551.558838 
	C1835.697998,567.801331 1829.079468,583.071289 1820.131470,597.180481 
	C1810.152222,612.915771 1799.664917,628.362549 1788.703125,643.428833 
	C1781.776123,652.949646 1773.666016,661.622314 1765.918945,670.529785 
	C1759.754517,677.617493 1753.632446,684.783752 1746.961304,691.378845 
	C1737.205200,701.023926 1727.013306,710.230896 1716.932861,719.544312 
	C1710.032715,725.919678 1703.105225,732.272339 1696.013428,738.432129 
	C1684.747070,748.218018 1673.326172,757.826050 1661.984009,767.524780 
	C1652.632080,775.521423 1643.489258,783.775940 1633.913696,791.494385 
	C1619.823120,802.852112 1605.818481,814.381958 1591.072510,824.845276 
	C1570.455444,839.474304 1549.452026,853.601379 1528.123901,867.173035 
	C1508.596558,879.598816 1488.678589,891.469177 1468.457642,902.731140 
	C1445.666748,915.424316 1422.698120,927.907898 1399.149170,939.098877 
	C1377.590454,949.344055 1355.286621,958.079285 1333.052124,966.821106 
	C1321.380981,971.409668 1309.163940,974.614929 1297.171875,978.376648 
	C1294.602539,979.182617 1291.940796,979.693481 1289.660767,980.670166 
	C1283.978882,981.000000 1277.957642,981.000000 1271.468262,981.000000 
z"/>
<path fill="#DFB0B0" opacity="1.000000" stroke="none" 
	d="
M935.470947,18.219902 
	C943.344910,16.660715 950.850647,15.313857 958.340637,13.884393 
	C971.234192,11.423637 984.210388,10.940532 997.150757,13.035197 
	C1007.205811,14.662817 1017.380249,16.208618 1027.097168,19.134115 
	C1047.254517,25.202986 1064.256836,36.715153 1077.959106,52.625069 
	C1090.841431,67.582741 1099.181519,85.122513 1103.874390,104.230652 
	C1106.461548,114.764580 1108.493652,125.492996 1109.875244,136.249420 
	C1111.442383,148.449738 1113.020142,160.800293 1112.769165,173.048172 
	C1112.360107,193.012466 1110.634277,212.911285 1107.154907,232.698090 
	C1100.726929,269.252441 1092.752075,305.453522 1081.828735,340.874207 
	C1073.135620,369.063538 1063.169434,396.907715 1052.580933,424.448608 
	C1045.338135,443.287170 1036.369507,461.492889 1027.594116,479.702789 
	C1018.945129,497.650513 1009.673096,515.302002 1000.474182,532.979248 
	C994.043701,545.336487 986.405518,557.140930 980.884949,569.876404 
	C974.353333,584.944336 969.699585,600.815979 963.905090,616.216248 
	C956.110718,636.931763 946.801392,656.691040 932.025879,673.748901 
	C914.457153,694.031311 892.971008,707.078979 867.270447,714.192749 
	C856.539368,717.163086 846.028748,718.512878 835.554932,714.899414 
	C812.644348,706.995300 797.327881,690.875244 788.059265,668.815735 
	C782.377625,655.293213 778.650330,641.162231 780.214478,626.441772 
	C781.037415,618.696533 783.591614,611.015259 786.222290,603.609924 
	C790.212219,592.378296 792.179382,580.951111 792.021851,569.074585 
	C791.909119,560.576843 791.577881,552.050842 792.088867,543.582397 
	C793.117676,526.531738 794.349609,509.480804 796.071594,492.488129 
	C797.666748,476.746460 799.555969,461.005157 802.147522,445.401825 
	C804.934998,428.618622 808.357971,411.921265 812.097961,395.320343 
	C818.496582,366.918671 825.152100,338.570801 832.079834,310.293457 
	C839.926819,278.263947 848.443054,246.397461 856.179077,214.342026 
	C860.622314,195.930405 863.970276,177.257126 868.043457,158.752731 
	C871.591125,142.635498 874.869019,126.422211 879.339111,110.553642 
	C885.416260,88.980217 892.599670,67.706451 903.083069,47.776928 
	C910.203918,34.239849 920.327454,23.723257 935.470947,18.219902 
z"/>
<path fill="#DFB0B0" opacity="1.000000" stroke="none" 
	d="
M61.348167,420.745850 
	C53.050549,414.362946 44.939636,408.333038 37.090923,401.979218 
	C19.948080,388.101501 6.839197,371.804657 3.845217,348.837494 
	C2.373271,337.546021 3.331060,326.556702 5.028141,315.521606 
	C6.456811,306.231750 7.947999,296.923157 10.071267,287.776001 
	C12.511712,277.262421 17.596577,267.840210 24.216354,259.350372 
	C31.659580,249.804443 40.929703,242.589340 52.352169,238.243011 
	C63.948513,233.830551 75.726562,233.388901 88.020615,234.750565 
	C100.437523,236.125778 112.067970,239.663559 123.651543,243.907669 
	C141.142456,250.316162 157.251236,259.373505 171.907761,270.650696 
	C186.818222,282.123322 201.014694,294.543793 215.260544,306.853851 
	C226.232880,316.335205 236.962738,326.113434 247.505814,336.071533 
	C264.624359,352.240356 281.964783,368.215240 298.352081,385.105896 
	C315.099640,402.367889 330.993195,420.473999 346.935425,438.498199 
	C370.818054,465.499847 391.891510,494.669647 411.263458,525.005249 
	C420.309845,539.171448 427.929932,554.260437 435.946686,569.066467 
	C439.318115,575.293213 442.474609,581.706970 444.971649,588.321594 
	C450.071350,601.830444 446.547791,614.243347 436.469849,623.547546 
	C428.355499,631.038940 418.287781,636.460815 408.864380,642.451172 
	C406.839111,643.738586 403.858643,643.927429 401.317902,643.928406 
	C391.526917,643.932129 381.625000,644.515015 371.971863,643.271606 
	C358.828003,641.578613 348.021088,633.924683 337.304443,626.665588 
	C325.353912,618.570679 313.610657,610.170593 301.730865,601.970337 
	C272.632690,581.884949 243.444107,561.929871 214.417633,541.741455 
	C196.961014,529.600098 179.670303,517.216064 162.457077,504.731506 
	C157.426468,501.082855 152.783051,496.861084 148.198013,492.645477 
	C137.730301,483.021210 127.796387,472.777344 116.931107,463.634247 
	C102.713127,451.669861 87.837883,440.483521 73.173080,429.055237 
	C69.474548,426.172913 65.500969,423.643524 61.348167,420.745850 
z"/>
<path fill="#DFB0B0" opacity="1.000000" stroke="none" 
	d="
M1218.999268,616.004883 
	C1206.522949,636.864014 1193.805298,657.175964 1181.780884,677.890320 
	C1173.994263,691.304138 1166.734741,705.077454 1160.133789,719.110535 
	C1153.814697,732.544006 1142.773438,739.116333 1129.432007,742.946106 
	C1117.529541,746.362854 1105.315918,747.758240 1092.941406,746.964966 
	C1080.255981,746.151917 1069.704468,741.257080 1061.425537,731.139343 
	C1056.158081,724.702026 1052.433105,717.733643 1049.937866,709.921631 
	C1046.900757,700.413391 1047.348022,691.001343 1049.953369,681.463745 
	C1054.760132,663.867004 1058.329346,645.861511 1064.245850,628.656189 
	C1071.897339,606.406128 1080.654663,584.467285 1090.204468,562.957642 
	C1100.485107,539.802124 1113.975220,518.258850 1129.559692,498.325195 
	C1140.691406,484.086975 1153.048706,470.679779 1165.900024,457.952789 
	C1176.414185,447.540436 1189.489990,441.160736 1205.003174,442.020386 
	C1216.410522,442.652466 1226.140747,447.353302 1234.978271,454.415985 
	C1247.985352,464.810730 1252.363159,478.966095 1252.954590,494.775848 
	C1253.222168,501.926849 1253.074951,509.097076 1252.984375,516.256958 
	C1252.797241,531.064026 1249.524414,545.254517 1243.988159,558.924683 
	C1237.689209,574.478333 1231.304932,589.998840 1224.766968,605.453064 
	C1223.260620,609.013489 1220.977661,612.245239 1218.999268,616.004883 
z"/>
<path fill="#DFB0B0" opacity="1.000000" stroke="none" 
	d="
M575.435486,630.977234 
	C565.422729,628.892395 556.344299,625.729736 548.352417,619.866577 
	C536.280029,611.009766 529.084473,598.909851 525.047424,584.782349 
	C519.214050,564.368469 510.441711,545.140015 502.129852,525.679688 
	C495.429840,509.993011 489.183197,493.964417 484.615265,477.563934 
	C481.193573,465.278900 480.626343,452.177582 479.061951,439.406128 
	C478.362183,433.693359 477.848633,427.878235 478.087372,422.144379 
	C478.934296,401.801544 486.226257,384.017426 499.738403,368.671814 
	C509.049988,358.096680 519.948486,349.816681 533.183899,345.104858 
	C552.698303,338.157593 569.823792,343.114197 586.112549,355.359619 
	C609.507446,372.947174 621.107849,397.104279 626.865417,424.674957 
	C629.621399,437.872406 631.074829,451.346802 632.984192,464.714905 
	C635.380615,481.493958 638.031494,498.249969 639.864319,515.093018 
	C642.489380,539.214905 649.051575,562.507935 653.627747,586.207642 
	C656.650208,601.861084 647.563477,615.863647 628.701721,621.000183 
	C620.631409,623.197937 612.510071,625.308594 604.630188,628.079468 
	C595.210876,631.391602 585.566528,630.986633 575.435486,630.977234 
z"/>
</svg>

<svg xmlns="http://www.w3.org/2000/svg" xml:space="preserve" viewBox="0 0 1844 980"><path fill="#DFB0B0" d="M1271.468 981c-1.298-.666-2.067-1.812-2.967-1.927-15.928-2.033-29.778-8.48-41.936-18.939-11.432-9.834-18.904-21.93-22.616-36.545-3.972-15.64-2.072-30.876 3.18-45.718 7.04-19.897 16.78-38.32 31.373-53.92 10.138-10.838 20.33-21.658 29.886-33 9.973-11.837 19.261-24.254 28.763-36.484 16.457-21.181 34.277-41.206 54.235-59.06 18.643-16.68 38.46-32.042 57.719-48.036 12.347-10.253 24.597-20.623 36.925-30.898 13.704-11.42 27.537-22.687 41.145-34.22 10.78-9.136 21.268-18.616 31.954-27.865 14.27-12.35 28.622-24.605 42.904-36.94 7.958-6.874 15.678-14.035 23.803-20.704 15.403-12.644 30.67-25.5 46.663-37.365 11.94-8.86 24.672-16.748 37.524-24.26 16.077-9.395 34.093-13.767 52.027-18.106 10.06-2.433 20.24-4.417 30.206-7.18 7.528-2.086 14.382.217 20.797 2.912 19.082 8.019 34.141 21.446 47.392 37.119 9.71 11.484 16.553 24.405 19.895 39.027 1.41 6.173 2.46 12.57 2.528 18.878.16 14.637 1.113 29.328-2.789 43.79-4.381 16.242-11 31.512-19.948 45.621a877.008 877.008 0 0 1-31.428 46.249c-6.927 9.52-15.037 18.193-22.784 27.1-6.164 7.088-12.287 14.255-18.958 20.85-9.756 9.645-19.948 18.852-30.028 28.165-6.9 6.376-13.828 12.728-20.92 18.888-11.266 9.786-22.687 19.394-34.029 29.093-9.352 7.996-18.495 16.25-28.07 23.97-14.09 11.357-28.096 22.887-42.841 33.35a1505.515 1505.515 0 0 1-62.95 42.328 1187.23 1187.23 0 0 1-59.665 35.558c-22.791 12.693-45.76 25.177-69.309 36.368-21.559 10.245-43.862 18.98-66.097 27.722-11.671 4.589-23.888 7.794-35.88 11.556-2.57.806-5.231 1.316-7.511 2.293-5.682.33-11.703.33-18.193.33zM935.47 18.22c7.875-1.56 15.38-2.906 22.87-4.336 12.894-2.46 25.87-2.943 38.81-.849 10.056 1.628 20.23 3.174 29.947 6.1 20.158 6.068 37.16 17.58 50.862 33.49 12.882 14.958 21.223 32.498 25.915 51.606 2.588 10.534 4.62 21.262 6.001 32.018 1.567 12.2 3.145 24.551 2.894 36.8-.409 19.963-2.135 39.862-5.614 59.65-6.428 36.553-14.403 72.755-25.326 108.175-8.693 28.19-18.66 56.034-29.248 83.575-7.243 18.838-16.211 37.044-24.987 55.254-8.649 17.948-17.92 35.599-27.12 53.276-6.43 12.357-14.068 24.162-19.59 36.897-6.53 15.068-11.184 30.94-16.979 46.34-7.794 20.716-17.104 40.475-31.88 57.533-17.568 20.282-39.054 33.33-64.755 40.444-10.73 2.97-21.241 4.32-31.715.706-22.91-7.904-38.227-24.024-47.496-46.083-5.681-13.523-9.409-27.654-7.845-42.374.823-7.745 3.378-15.427 6.008-22.832 3.99-11.232 5.957-22.659 5.8-34.535-.113-8.498-.444-17.024.067-25.493 1.029-17.05 2.26-34.101 3.983-51.094 1.595-15.742 3.484-31.483 6.076-47.086 2.787-16.783 6.21-33.48 9.95-50.082a4678.737 4678.737 0 0 1 19.982-85.027c7.847-32.03 16.363-63.896 24.1-95.951 4.442-18.412 7.79-37.085 11.863-55.59 3.548-16.117 6.826-32.33 11.296-48.198 6.077-21.574 13.26-42.848 23.744-62.777 7.12-13.537 17.244-24.054 32.388-29.557zM61.348 420.746c-8.297-6.383-16.408-12.413-24.257-18.767-17.143-13.877-30.252-30.174-33.246-53.142-1.472-11.291-.514-22.28 1.183-33.315 1.429-9.29 2.92-18.599 5.043-27.746 2.44-10.514 7.526-19.936 14.145-28.426 7.444-9.546 16.714-16.76 28.136-21.107 11.597-4.412 23.375-4.854 35.669-3.492 12.417 1.375 24.047 4.913 35.63 9.157 17.491 6.408 33.6 15.466 48.257 26.743 14.91 11.472 29.107 23.893 43.353 36.203 10.972 9.481 21.702 19.26 32.245 29.218 17.118 16.168 34.459 32.143 50.846 49.034 16.748 17.262 32.641 35.368 48.583 53.392 23.883 27.002 44.957 56.172 64.328 86.507 9.047 14.166 16.667 29.255 24.684 44.061 3.371 6.227 6.528 12.641 9.025 19.256 5.1 13.508 1.576 25.921-8.502 35.226-8.115 7.49-18.182 12.913-27.606 18.903-2.025 1.288-5.005 1.476-7.546 1.477-9.791.004-19.693.587-29.346-.656-13.144-1.693-23.95-9.347-34.668-16.606-11.95-8.095-23.693-16.495-35.573-24.696-29.098-20.085-58.287-40.04-87.313-60.229-17.457-12.14-34.748-24.525-51.96-37.01-5.032-3.648-9.675-7.87-14.26-12.086-10.468-9.624-20.402-19.868-31.267-29.01-14.218-11.965-29.093-23.151-43.758-34.58-3.698-2.882-7.672-5.411-11.825-8.31zM1219 616.005c-12.477 20.859-25.195 41.171-37.22 61.885-7.786 13.414-15.045 27.187-21.646 41.22-6.32 13.434-17.36 20.006-30.702 23.836-11.902 3.417-24.116 4.812-36.49 4.019-12.686-.813-23.238-5.708-31.516-15.826-5.268-6.437-8.993-13.405-11.488-21.217-3.037-9.509-2.59-18.92.015-28.458 4.807-17.597 8.376-35.602 14.293-52.808 7.651-22.25 16.409-44.189 25.958-65.698 10.281-23.156 23.771-44.7 39.356-64.633 11.131-14.238 23.489-27.645 36.34-40.372 10.514-10.413 23.59-16.792 39.103-15.933 11.408.632 21.138 5.333 29.975 12.396 13.007 10.395 17.385 24.55 17.977 40.36.267 7.15.12 14.321.03 21.481-.188 14.807-3.46 28.998-8.997 42.668-6.299 15.553-12.683 31.074-19.221 46.528-1.506 3.56-3.79 6.792-5.768 10.552zM575.435 630.977c-10.012-2.085-19.09-5.247-27.083-11.11-12.072-8.857-19.268-20.957-23.305-35.085-5.833-20.414-14.605-39.642-22.917-59.102-6.7-15.687-12.947-31.716-17.515-48.116-3.421-12.285-3.989-25.386-5.553-38.158-.7-5.713-1.213-11.528-.975-17.262.847-20.342 8.14-38.127 21.651-53.472 9.312-10.575 20.21-18.855 33.446-23.567 19.514-6.947 36.64-1.99 52.929 10.255 23.394 17.587 34.995 41.744 40.752 69.315 2.756 13.197 4.21 26.672 6.12 40.04 2.396 16.779 5.046 33.535 6.88 50.378 2.624 24.122 9.187 47.415 13.763 71.115 3.022 15.653-6.065 29.656-24.926 34.792-8.07 2.198-16.192 4.309-24.072 7.08-9.42 3.312-19.063 2.907-29.195 2.897z"/></svg>
